X:54
T:There's Nae Luck About the House
C:arr. Carlo Minasi
M:2/4
L:1/8
B:Chappell's One Hundred Scotch Melodies
B:Arranged for the Concertina by Carlo Minasi
Q:"Moderato  "1/4=120
Z:Peter Dunk 2012
K:G
!p!e|([gGE]>e[dBG]>B)|[cGE]>c(ce)|\
([gGE]>e[dBG]>B)|[A3F3D3] e|([gGE]>e[dBG]>B)|
[cGE]>c(ce)|([dBG]>c[BD]>[AC])|[G3D3B3]!f!:||\
G/A/|[B2G2D2G,2](c>A)|[c2F2D2A,2] (c>A)|\
[B2G2D2G,2] [BD]>[GB,]|
L[A3F3D3] (G/A/)|[B2G2] [B=F]>G|[cE]>[dB,] H[eC] z/g/|\
[dGB,]>[cAEC][BGD]>[AFDC]|[G3D3B,3G,3]||

